X: 24394
T: Lovely Nancy
R: waltz
M: 3/4
K: Gmajor
|:BA|G2 G2 GB|A2 A2 Ac|B2 gd cB|B2 A2 BA|
G2 G2 GB|A2 A2 Ac|Bg ec AF|G2 G2:|
|:Bc|d2 d2 ge|d4 Bc|d2 d2 gB|A3 c c/B/A|
G2 G2 GB|A2 A2 Ac|Bg ec AF|G4:|

